Source/WebInspectorUI/UserInterface/Images/gtk/BreakpointInactiveButton.svg

<?xml version="1.0" encoding="UTF-8" standalone="no"?>
<!-- Created with Inkscape (http://www.inkscape.org/) -->

<svg
   xmlns:dc="http://purl.org/dc/elements/1.1/"
   xmlns:cc="http://creativecommons.org/ns#"
   xmlns:rdf="http://www.w3.org/1999/02/22-rdf-syntax-ns#"
   xmlns:svg="http://www.w3.org/2000/svg"
   xmlns="http://www.w3.org/2000/svg"
   xmlns:xlink="http://www.w3.org/1999/xlink"
   version="1.1"
   width="21"
   height="12"
   id="svg3029">
  <defs
     id="defs3031">
    <radialGradient
       cx="314"
       cy="232.05559"
       r="5.2619252"
       fx="314"
       fy="232.05559"
       id="radialGradient6258"
       xlink:href="#linearGradient7077-4"
       gradientUnits="userSpaceOnUse"
       gradientTransform="matrix(2.470582,0,0,1.9004442,-481.76274,-208.50871)" />
    <linearGradient
       id="linearGradient7077-4">
      <stop
         id="stop7079-9"
         style="stop-color:#888a85;stop-opacity:1"
         offset="0" />
      <stop
         id="stop7085-4"
         style="stop-color:#888a85;stop-opacity:0.89803922"
         offset="0.61538231" />
      <stop
         id="stop7081-6"
         style="stop-color:#888a85;stop-opacity:0"
         offset="1" />
    </linearGradient>
    <radialGradient
       cx="314"
       cy="232.05559"
       r="5.2619252"
       fx="314"
       fy="232.05559"
       id="radialGradient6258-6"
       xlink:href="#linearGradient7077-4-5"
       gradientUnits="userSpaceOnUse"
       gradientTransform="matrix(2.470582,0,0,1.9004442,-481.76274,-208.50871)" />
    <linearGradient
       id="linearGradient7077-4-5">
      <stop
         id="stop7079-9-0"
         style="stop-color:#888a85;stop-opacity:1"
         offset="0" />
      <stop
         id="stop7085-4-8"
         style="stop-color:#888a85;stop-opacity:0.89803922"
         offset="0.61538231" />
      <stop
         id="stop7081-6-0"
         style="stop-color:#888a85;stop-opacity:0"
         offset="1" />
    </linearGradient>
    <radialGradient
       cx="314"
       cy="232.05559"
       r="5.2619252"
       fx="314"
       fy="232.05559"
       id="radialGradient6258-5"
       xlink:href="#linearGradient7077-4-53"
       gradientUnits="userSpaceOnUse"
       gradientTransform="matrix(2.470582,0,0,1.9004442,-481.76274,-208.50871)" />
    <linearGradient
       id="linearGradient7077-4-53">
      <stop
         id="stop7079-9-6"
         style="stop-color:#888a85;stop-opacity:1"
         offset="0" />
      <stop
         id="stop7085-4-5"
         style="stop-color:#888a85;stop-opacity:0.89803922"
         offset="0.61538231" />
      <stop
         id="stop7081-6-5"
         style="stop-color:#888a85;stop-opacity:0"
         offset="1" />
    </linearGradient>
    <radialGradient
       cx="314"
       cy="232.05559"
       r="5.2619252"
       fx="314"
       fy="232.05559"
       id="radialGradient6258-9"
       xlink:href="#linearGradient7077-4-8"
       gradientUnits="userSpaceOnUse"
       gradientTransform="matrix(2.470582,0,0,1.9004442,-481.76274,-208.50871)" />
    <linearGradient
       id="linearGradient7077-4-8">
      <stop
         id="stop7079-9-5"
         style="stop-color:#888a85;stop-opacity:1"
         offset="0" />
      <stop
         id="stop7085-4-0"
         style="stop-color:#888a85;stop-opacity:0.89803922"
         offset="0.61538231" />
      <stop
         id="stop7081-6-8"
         style="stop-color:#888a85;stop-opacity:0"
         offset="1" />
    </linearGradient>
    <linearGradient
       id="linearGradient7077-4-7">
      <stop
         id="stop7079-9-7"
         style="stop-color:#888a85;stop-opacity:1"
         offset="0" />
      <stop
         id="stop7085-4-2"
         style="stop-color:#888a85;stop-opacity:0.89803922"
         offset="0.61538231" />
      <stop
         id="stop7081-6-9"
         style="stop-color:#888a85;stop-opacity:0"
         offset="1" />
    </linearGradient>
    <radialGradient
       cx="314"
       cy="232.05559"
       r="5.2619252"
       fx="314"
       fy="232.05559"
       id="radialGradient4493"
       xlink:href="#linearGradient7077-4-7"
       gradientUnits="userSpaceOnUse"
       gradientTransform="matrix(2.470582,0,0,1.9004442,-481.76274,-208.50871)" />
    <radialGradient
       cx="314"
       cy="232.05559"
       r="5.2619252"
       fx="314"
       fy="232.05559"
       id="radialGradient4495"
       xlink:href="#linearGradient7077-4-7"
       gradientUnits="userSpaceOnUse"
       gradientTransform="matrix(2.470582,0,0,1.9004442,-481.76274,-208.50871)" />
    <radialGradient
       cx="314"
       cy="232.05559"
       r="5.2619252"
       fx="314"
       fy="232.05559"
       id="radialGradient4500"
       xlink:href="#linearGradient7077-4-7"
       gradientUnits="userSpaceOnUse"
       gradientTransform="matrix(2.470582,0,0,1.9004442,-789.60858,-353.70008)" />
  </defs>
  <metadata
     id="metadata3034">
    <rdf:RDF>
      <cc:Work
         rdf:about="">
        <dc:format>image/svg+xml</dc:format>
        <dc:type
           rdf:resource="http://purl.org/dc/dcmitype/StillImage" />
        <dc:title></dc:title>
        <cc:license
           rdf:resource="http://creativecommons.org/licenses/by-sa/3.0/" />
      </cc:Work>
      <cc:License
         rdf:about="http://creativecommons.org/licenses/by-sa/3.0/">
        <cc:permits
           rdf:resource="http://creativecommons.org/ns#Reproduction" />
        <cc:permits
           rdf:resource="http://creativecommons.org/ns#Distribution" />
        <cc:requires
           rdf:resource="http://creativecommons.org/ns#Notice" />
        <cc:requires
           rdf:resource="http://creativecommons.org/ns#Attribution" />
        <cc:permits
           rdf:resource="http://creativecommons.org/ns#DerivativeWorks" />
        <cc:requires
           rdf:resource="http://creativecommons.org/ns#ShareAlike" />
      </cc:License>
    </rdf:RDF>
  </metadata>
  <path
     d="M 2.925,1 C 2.478192,1 2.074916,1.136064 1.76875,1.40625 1.462584,1.676436 1.3,2.07826 1.3,2.53125 l 0,7.9375 c 0,0.460741 0.160496,0.885666 0.46875,1.15625 C 2.077004,11.895584 2.472087,12 2.925,12 L 10.14375,12 10.3,12 10.425,11.90625 15.4875,6.8125 15.76875,6.53125 15.4875,6.28125 10.425,1.125 10.3,1 10.14375,1 z"
     id="path6268-0"
     style="font-size:medium;font-style:normal;font-variant:normal;font-weight:normal;font-stretch:normal;text-indent:0;text-align:start;text-decoration:none;line-height:normal;letter-spacing:normal;word-spacing:normal;text-transform:none;direction:ltr;block-progression:tb;writing-mode:lr-tb;text-anchor:start;baseline-shift:baseline;color:#000000;fill-opacity:1;fill-rule:nonzero;stroke:none;stroke-width:0.78777313;marker:none;visibility:visible;display:inline;overflow:visible;enable-background:accumulate;font-family:Sans;-inkscape-font-specification:Sans" />
  <path
     d="m 10.146052,0.39388658 5.0713,5.14092122 -5.0713,5.0713052 -7.2048463,0 c -0.780662,0 -1.2473191,-0.372104 -1.2473191,-1.1324157 l 0,-7.9473631 c 0,-0.72714619 0.4952116,-1.13244762 1.2473191,-1.13244762 z"
     id="path6268"
     style="color:#000000;fill:#babdb6;fill-opacity:1;fill-rule:nonzero;stroke:#888a85;stroke-width:0.78777313;marker:none;visibility:visible;display:inline;overflow:visible;enable-background:accumulate" />
  <path
     d="m 14.705574,5.5000118 -4.7266389,-4.72663912 -7.0899588,0 c -0.7877731,0 -0.7877731,0.78777322 -0.7877731,0.78777322 l 7.8777319,0 z"
     id="path6270"
     style="opacity:0.48979594;color:#bebebe;fill:#ffffff;fill-opacity:1;fill-rule:nonzero;stroke:none;stroke-width:1;marker:none;visibility:visible;display:inline;overflow:visible;enable-background:accumulate" />
</svg>

<?xml version="1.0" encoding="UTF-8" standalone="no"?>
<!-- Licensed under the Creative Commons Attribution-Share Alike 3.0 United States License (http://creativecommons.org/licenses/by-sa/3.0/) -->
<svg xmlns="http://www.w3.org/2000/svg" version="1.1" viewBox="0 0 21 12">
 <path style="block-progression:tb;text-indent:0;color:#000000;text-transform:none" d="m2.925 1c-0.4468 0-0.8501 0.1361-1.1562 0.4062-0.3062 0.2702-0.4688 0.6721-0.4688 1.125v7.9375c0 0.46074 0.1605 0.88567 0.46875 1.1562 0.3082 0.271 0.7033 0.375 1.1562 0.375h7.219 0.156l0.125-0.094 5.063-5.0935 0.281-0.2813-0.281-0.25-5.063-5.1562-0.125-0.125h-0.156z"/>
 <path style="color:#000000" d="m10.146 0.39389 5.0713 5.1409-5.0713 5.0713h-7.2048c-0.78066 0-1.2473-0.3721-1.2473-1.1324v-7.9474c0-0.72715 0.49521-1.1324 1.2473-1.1324z" stroke="#888a85" stroke-width=".78777" fill="#babdb6"/>
 <path opacity=".48980" style="color:#bebebe" d="m14.706 5.5-4.7266-4.7266h-7.09c-0.78777 0-0.78777 0.78777-0.78777 0.78777h7.8777z" fill="#fff"/>
</svg>
